X: 14677
T: Gan Ainm
R: polka
M: 2/4
K: Fmajor
K: Cmix
|:c/d/e/f/ gc|e>f gc|e>f gc|g/f/e/f/ g2|
c/d/e/f/ gc|e>f gc|e>f gc|gf/e/ d2:|
|:c/d/e/f/ gc|e>f gc|B2- BA|G/F/E/F/ G2|
c/d/e/f/ gc|e>f gc|B,C DE|FG AB:|

